X: 32061
T: Penamourán
R: jig
M: 6/8
K: Eminor
B2e|:d2B c2d|cBA B2e|d2B cBA|B3 ~g3|
~f3 efe|d2d efe|ded cBA|1 ,2,3 B3 B2 e:|4 B3 ~B3||
|:~e3 ~g3|fed cde|~a3 gfe|~f3cde|
~g3 fed|cBA ABA|~f3 edc|1 ,2,3 ~B3 ~B3:|4 ~B3||

